!!!COM:      Bach, Johann Sebastian
!!!CDT:      1685/03/31/-1750/07/28/
!!!OPR@@GER: Das wohltemperirte Clavier
!!!OVM@@GER: Band II
!!!OPR@ENG:  Well-Tempered Clavier
!!!OVM@ENG:  Book II
!!!OTL:      Fugue
!!!OKY:      G major
!!!ONM:      no. 15
!!!SCT:      BWV 884
!!!OMV:      2
**kern	**kern	**kern	**kern
*clefF4	*	*	*clefG2
*k[f#]	*	*	*k[f#]
*G:	*	*	*G:
*M3/8	*	*	*M3/8
*MM78	*MM78	*MM78	*MM78
4.r	4.ryy	4.ryy	16r
.	.	.	16dd
.	.	.	16b
.	.	.	16dd
.	.	.	16gg
.	.	.	16dd
=2	=2	=2	=2
4.r	4.ryy	4.ryy	16b
.	.	.	16dd
.	.	.	16g
.	.	.	16dd
.	.	.	16b
.	.	.	16dd
=3	=3	=3	=3
4.r	4.ryy	4.ryy	16ee
.	.	.	16cc
.	.	.	16a
.	.	.	16cc
.	.	.	16f#
.	.	.	16a
=4	=4	=4	=4
4.r	4.ryy	4.ryy	16dd
.	.	.	16b
.	.	.	16g
.	.	.	16b
.	.	.	16e
.	.	.	16g
=5	=5	=5	=5
4.r	4.ryy	4.ryy	16cc
.	.	.	16a
.	.	.	16f#
.	.	.	16a
.	.	.	16d
.	.	.	16f#
=6	=6	=6	=6
4.r	4.ryy	4.ryy	16b
.	.	.	16a
.	.	.	16g
.	.	.	16a
.	.	.	16b
.	.	.	16cc
=7	=7	=7	=7
4.r	4.ryy	4.ryy	16dd
.	.	.	16a
.	.	.	16b
.	.	.	16cc#
.	.	.	16dd
.	.	.	16ee
=8	=8	=8	=8
*	*staff:12	*	*
*	*clefG2	*	*
*	*k[f#]	*	*
4.r	16r	4.ryy	16ff#
.	16g	.	16ee
.	16f#	.	16dd
.	16a	.	16ee
.	16dd	.	16ff#
.	16a	.	16gg
=9	=9	=9	=9
4.r	16f#	4.ryy	8aa
.	16a	.	.
.	16d	.	8r
.	16a	.	.
.	16f#	.	8aa
.	16a	.	.
=10	=10	=10	=10
4.r	16b	4.ryy	8dd
.	16g	.	.
.	16e	.	[4gg
.	16g	.	.
.	16c#	.	.
.	16e	.	.
=11	=11	=11	=11
4.r	16a	4.ryy	8gg]
.	16f#	.	.
.	16d	.	8ff#
.	16f#	.	.
.	16B	.	8dd
.	16d	.	.
=12	=12	=12	=12
4.r	16g	4.ryy	8b
.	16e	.	.
.	16c#	.	[4ee
.	16e	.	.
.	16A	.	.
.	16c#	.	.
=13	=13	=13	=13
4.r	16f#	4.ryy	16ee]
.	16e	.	16gg
.	16d	.	16ff#
.	16e	.	16ee
.	16f#	.	16dd
.	16g	.	16ee
=14	=14	=14	=14
4.r	16a	4.ryy	16ff#
.	16d	.	16aa
.	16e	.	16gg
.	16f#	.	16ff#
.	16g	.	16ee
.	16a	.	16ff#
=15	=15	=15	=15
16r	16b	4.ryy	8gg
16d	16a	.	.
16B	16g	.	8r
16d	16a	.	.
16g	16b	.	8r
16d	16cc	.	.
=16	=16	=16	=16
16B	4dd	4.ryy	8r
16d	.	.	.
16G	.	.	[4bb
16d	.	.	.
16B	8dd	.	.
16d	.	.	.
=17	=17	=17	=17
16e	4cc	4.ryy	16bb]
16c	.	.	16ee
16A	.	.	16ff#
16c	.	.	[8.aa
16F#	8cc	.	.
16A	.	.	.
=18	=18	=18	=18
16d	4b	4.ryy	16aa]
16B	.	.	16dd
16G	.	.	16ee
16B	.	.	[8.gg
16E	8b	.	.
16G	.	.	.
=19	=19	=19	=19
16c	4a	4.ryy	16gg]
16A	.	.	16cc
16F#	.	.	16dd
16A	.	.	[8.ff#
16D	8a	.	.
16F#	.	.	.
=20	=20	=20	=20
16B	4g	4.ryy	8ff#]
16A	.	.	.
16G	.	.	[4ee
16A	.	.	.
16B	8g	.	.
16c#	.	.	.
=21	=21	=21	=21
16d	4f#	4.ryy	8ee]
16c#	.	.	.
16B	.	.	[4dd
16A	.	.	.
16G	8f#	.	.
16F#	.	.	.
=22	=22	=22	=22
16G	4e	4.ryy	8dd]
16E	.	.	.
16A	.	.	16cc#
16G	.	.	16b
16F#	8g	.	8cc#
16E	.	.	.
=23	=23	=23	=23
16D	8f#	4.ryy	8dd
16A	.	.	.
16F#	8r	.	8r
16A	.	.	.
16d	8r	.	8r
16A	.	.	.
=24	=24	=24	=24
16F#	8r	4.ryy	8r
16A	.	.	.
16D	8cc	.	8aa
16A	.	.	.
16F#	[8a	.	[8cc
16A	.	.	.
=25	=25	=25	=25
8B	8a]	4.ryy	16cc]
.	.	.	16dd
8r	8g	.	16b
.	.	.	16dd
8r	8r	.	16gg
.	.	.	16dd
=26	=26	=26	=26
8r	8r	4.ryy	16b
.	.	.	16dd
8B	8d	.	16g
.	.	.	16dd
8A	[8fn	.	16b
.	.	.	[16dd
=27	=27	=27	=27
16G#	8f]	4.ryy	8dd]
16B	.	.	.
16G#	8e	.	8r
16B	.	.	.
16e	8r	.	8r
16B	.	.	.
=28	=28	=28	=28
16G#	8r	4.ryy	8r
16B	.	.	.
16E	8dd	.	8bb
16B	.	.	.
16G#	[8b	.	[8dd
16B	.	.	.
=29	=29	=29	=29
8c	8b]	4.ryy	16dd]
.	.	.	16ee
8r	8a	.	16cc
.	.	.	16ee
8r	8r	.	16aa
.	.	.	16ee
=30	=30	=30	=30
*	*	*staff:8	*
*	*	*clefG2	*
*	*	*k[f#]	*
8r	8r	8ryy	16cc
.	.	.	16ee
8F#	8c	8ryy	16a
.	.	.	16ee
8E	8a	[8cc	16cc
.	.	.	16ee
=31	=31	=31	=31
16D#	8a	8cc]	8ff#
16F#	.	.	.
16D#	8r	8b	8r
16F#	.	.	.
16B	8r	8r	8r
16F#	.	.	.
=32	=32	=32	=32
16D#	8r	4.ryy	8r
16F#	.	.	.
16BB	8dd#	.	[4aa
16F#	.	.	.
16D#	8ff#	.	.
16F#	.	.	.
=33	=33	=33	=33
16G	8b	4.ryy	8aa]
16B	.	.	.
16G	8.ee	.	16bb
16B	.	.	16aa
16e	.	.	16gg
16B	16dd#	.	16ff#
=34	=34	=34	=34
16G	4ee	4.ryy	16ee
16B	.	.	16ff#
16E	.	.	[4gg
16B	.	.	.
16G	8b	.	.
16B	.	.	.
=35	=35	=35	=35
16c	4a	4.ryy	16gg]
16A	.	.	16cc
16F#	.	.	16dd
16A	.	.	[8.ff#
16D	8a	.	.
16F#	.	.	.
=36	=36	=36	=36
16B	4g	4.ryy	16ff#]
16G	.	.	16b
16E	.	.	16cc
16G	.	.	[8.ee
16C	8g	.	.
16E	.	.	.
=37	=37	=37	=37
16A	4f#	4.ryy	16ee]
16F#	.	.	16a
16D#	.	.	16b
16F#	.	.	[8.dd#
16BB	[8a	.	.
16D#	.	.	.
=38	=38	=38	=38
16G	8a]	4.ryy	8dd#]
16F#	.	.	.
16E	8.g	.	16ee
16F#	.	.	16dd#
16G	.	.	[8ee
16A	16g	.	.
=39	=39	=39	=39
16B	4f#	4.ryy	8ee]
16F#	.	.	.
16G#	.	.	16ddn
16A#	.	.	16cc#
16B	8r	.	16dd
16c#	.	.	16ee
=40	=40	=40	=40
16d	4.r	4.ryy	16ff#
16c#	.	.	16ee
16B	.	.	16dd
16c#	.	.	16ff#
16d	.	.	16bb
16e	.	.	16ff#
=41	=41	=41	=41
16f#	8r	4.ryy	16dd
16e	.	.	16ff#
[4d	8r	.	16b
.	.	.	16ff#
.	8f#	.	16dd
.	.	.	16ff#
=42	=42	=42	=42
16d]	4e	4.ryy	16gg
16G	.	.	16ee
16A	.	.	16cc#
[8.c#	.	.	16ee
.	8e	.	16a
.	.	.	16cc#
=43	=43	=43	=43
16c#]	4d	4.ryy	16ff#
16F#	.	.	16dd
16G	.	.	16b
[8.B	.	.	16dd
.	8d	.	16g
.	.	.	16b
=44	=44	=44	=44
16B]	4c#	4.ryy	16ee
16E	.	.	16cc#X
16F#	.	.	16a#
8A#	.	.	16cc#
.	8c#	.	16f#
16F#	.	.	16a#
=45	=45	=45	=45
8B	4B	4.ryy	16dd
.	.	.	16ff#
8BB	.	.	16b
.	.	.	16dd
8r	8r	.	16ff#
.	.	.	16dd
=46	=46	=46	=46
8r	8r	4.ryy	16b
.	.	.	16dd
8D	8r	.	16f#
.	.	.	16b
8BB	16r	.	[8dd
.	16a	.	.
=47	=47	=47	=47
8E	16g#	4.ryy	4.dd_
.	16b	.	.
8EE	16e	.	.
.	16g#	.	.
8r	16b	.	.
.	16g#	.	.
=48	=48	=48	=48
8r	16e	4.ryy	4.dd_
.	16g#	.	.
8G#	16B	.	.
.	16e	.	.
16E	[8g#	.	.
16d	.	.	.
=49	=49	=49	=49
16c	8g#]	4.ryy	8dd]
16e	.	.	.
16A	8a	.	8cc
16c	.	.	.
16e	8a	.	8cc
16c	.	.	.
=50	=50	=50	=50
16A	[4.a	4.ryy	[4.ccT
16c	.	.	.
16E	.	.	.
16A	.	.	.
16c	.	.	.
16G	.	.	.
=51	=51	=51	=51
16F#	8a]	4.ryy	8cc]
16A	.	.	.
16D	8f#	.	8cc
16F#	.	.	.
16A	8f#	.	8cc
16F#	.	.	.
=52	=52	=52	=52
16D	[4.f#t	4.ryy	[4.cc
16F#	.	.	.
16AA	.	.	.
16D	.	.	.
16F#	.	.	.
16C	.	.	.
=53	=53	=53	=53
16BB	8f#]	4.ryy	8cc]
16D	.	.	.
16GG	8g	.	8b
16BB	.	.	.
16D	8g	.	8b
16BB	.	.	.
=54	=54	=54	=54
16GG	8g	4.ryy	[4b
16BB	.	.	.
16DD	16fn	.	.
16GG	16e	.	.
16BB	8d	.	16b]
16FFn	.	.	[16b
=55	=55	=55	=55
16EE	[4.c	4.ryy	16b]
16GG	.	.	16b
16CC	.	.	16a
16DD	.	.	16f#X
16EE	.	.	16g
16CC	.	.	16e
=56	=56	=56	=56
8DD	8c]	4.ryy	16f#
.	.	.	16a
8D	8F#	.	16d
.	.	.	16f#
8D	8F#	.	16a
.	.	.	16f#
=57	=57	=57	=57
*	*staff:1	*	*
*	*clefF4	*	*
[4.D	[4F#t	4.ryy	16d
.	.	.	16f#
.	.	.	16A
.	.	.	16d
.	16F#]	.	16f#
.	32E	.	16c
.	32F#	.	.
=58	=58	=58	=58
8D]	8G	4.ryy	16B
.	.	.	16d
8D	8G	.	16B
.	.	.	16d
8D	8G	.	16g
.	.	.	16d
=59	=59	=59	=59
[4DT	8G	4.ryy	16B
.	.	.	16d
.	8r	.	16G
.	.	.	16B
16D]	8r	.	16d
32C#	.	.	16B
32D	.	.	.
=60	=60	=60	=60
8E	16G	4.ryy	4.ryy
.	16B-	.	.
8DD 8GG 8BB-X	16E	.	.
.	16G	.	.
8DD 8GG 8BB-	16B-	.	.
.	16D	.	.
=61	=61	=61	=61
8DD	[4C#t	4.ryy	16r
.	.	.	16B-
8r	.	.	16A
.	.	.	16G
8r	16C#]	.	16e
.	32BBn	.	16G
.	32C#	.	.
=62	=62	=62	=62
8ryy	8D	4.ryy	16F#w
.	.	.	16E
16r	8ryy	.	8D
32DD	.	.	.
32EE	.	.	.
32FF#	8ryy	.	8r
32GG	.	.	.
32AA	.	.	.
32BB	.	.	.
=63	=63	=63	=63
32C	4.ryy	4.ryy	4.r
32AA	.	.	.
32BB	.	.	.
32C	.	.	.
32D	.	.	.
32E	.	.	.
32F#	.	.	.
32G	.	.	.
32A	.	.	.
32F#	.	.	.
32G	.	.	.
32A	.	.	.
=64	=64	=64	=64
8r	4.ryy	4.ryy	32B
.	.	.	32c#
.	.	.	32d
.	.	.	32e
8D	.	.	32f#
.	.	.	32d
.	.	.	32e
.	.	.	32f#
8C	.	.	32g
.	.	.	32a
.	.	.	32b
.	.	.	32ccn
=65	=65	=65	=65
8BB	16r	4.ryy	[4.dd
.	16d	.	.
8B	16B	.	.
.	16d	.	.
8r	16g	.	.
.	16d	.	.
=66	=66	=66	=66
8r	16B	4.ryy	4.dd_
.	16d	.	.
8r	16G	.	.
.	16d	.	.
8G	16B	.	.
.	16d	.	.
=67	=67	=67	=67
8C	16e	4.ryy	8dd]
.	16c	.	.
8r	16A	.	[4cc
.	16c	.	.
8AA	16F#	.	.
.	16A	.	.
=68	=68	=68	=68
8BB	16d	4.ryy	8cc]
.	16B	.	.
8r	16G	.	[4b
.	16B	.	.
8GG	16E	.	.
.	16G	.	.
=69	=69	=69	=69
8AA	16c	4.ryy	8b]
.	16A	.	.
8r	16F#	.	16a
.	16A	.	16cc
8D	16D	.	16ff#
.	16F#	.	[16aa
=70	=70	=70	=70
*MM74	*MM74	*MM74	*MM74
8G	8B	4.ryy	16aa]
.	.	.	8gg
8A	8c	.	.
.	.	.	16ff#
8B	8d	.	16gg
.	.	.	32ff#
.	.	.	32ee
=71	=71	=71	=71
*MM64	*MM64	*MM64	*MM64
8r	8r	4.ryy	32dd
.	.	.	32cc
.	.	.	32b
.	.	.	32a
8C	8B	.	32g
.	.	.	32b
.	.	.	32a
.	.	.	32g
8D	8A	.	32f#
.	.	.	32e
.	.	.	32d
.	.	.	32c
=72	=72	=72	=72
*MM54	*MM54	*MM54	*MM54
.	.	.	8cQ
4.GG	4.G	4.ryy	4.B;
==	==	==	==
*-	*-	*-	*-
!!!AFR:  fugue
!!!EFL:  78/96
!!!END:  1994/02/11/
!!!VID:  3211421369 Bach, BWV 884-02
!!!AST:  Baroque
!!!OCY:  Deutschland
!!!ODT:  1742///
!!!PDT:  1801///
!!!EED:  Walter Hewlett
!!!ENC:  Walter Hewlett
!!!YOR:  Bach Gesellschaft Edition xiv
!!!AFT:  enhanced SCORE
!!!RDT:  2011/10/07/ by Andreas Kornstaedt using massScr2hmd
!!!SCA1: Thematisch-systematisches Verzeichnis der musikalischen Werke 
!!!SCA2: Johann Sebastian Bach: Bach-Werke-Verzeichnis (Schmieder)
!!!YEC1: Copyright 1994, 2000 Center for Computer Assisted Research 
!!!YEC2: in the Humanities
!!!YEM1: Rights to all derivative editions reserved.
!!!YEM2: Refer to licensing agreement for further details.
!!!YEN:  United States of America
!!!ref:  @{OTL}, @{SCT}
!!muse2ps: T^@{OTL} @{ONM} in @{OKY}^C^J.S. Bach\n@{SCT}-@{OMV}^
!!muse2ps: u^@{OPR@ENG}, @{OVM@ENG}^j
